X:466
T: DER STRAUSS DEN ICH GEPFLUECKET
N: F0880
O: Europa, Mitteleuropa, Deutschland
R: Liebes - Lied
M: 2/4
L: 1/16
K: C
G,2 | E,2G,2C2D2 | E4D2z2 |
E3DC2A,2 | G,3E,C,2
G,2 | E,2G,2C2D2 | E4D2
C2 | B,2C2B,2G,2 | E,4z2
G,2 | A,2B,2C2D2 | E2G2G2
F2 | E2D2A,2B,2 | C6
G,2 | G,2A,2G,2E,2 | C,6

@@@ Tune index: 5897
